img/scene_6_bg.svg

<svg width="1282" height="2781" fill="none" xmlns="http://www.w3.org/2000/svg">
  <g clip-path="url(#a)">
    <path d="M1284.1 2.67H.1v2778h1284V2.67Z" fill="#ECE9E9"/>
    <path d="M-1.68 0v2778H81.1V579.77l25.43-15c67.81-42.59 108.07-191.56 108.07-191.56 2.41-2.85 855.67-2.95 858.17 0 0 0 40.26 149 108.07 191.53l25.43 15V2778h76V0H-1.68Z" fill="#86D5C2"/>
    <path d="M1093.76 336.82H193.61C144.23 541.05 52.19 557 52.19 557v2221H81.1V579.77l25.43-15c67.81-42.59 108.07-191.56 108.07-191.56 2.41-2.85 855.67-3 858.17 0 0 0 40.26 149 108.07 191.53l25.43 15V2778h28.91V557s-92.04-15.95-141.42-220.18Z" fill="#06A0DE" style="mix-blend-mode:multiply" opacity=".5"/>
    <path d="M290.79 2400.32c-19.56-19.5-31.36-42.91-39.09-72-8.93-33.53-5.28-70 30.53-85.88 23.64-10.5 72.31-2.63 77.95 27.62 1.87 10-3.43 21.08-12.45 26-8.17 4.51-21.2 12.29-29.48 4.49-5.51-5.19-3.46-14.86-8.4-19.67-9.34-9.09-17.6 3.42-18.43 11.64-1.13 11.28 3.77 24 7.38 34.55a123.026 123.026 0 0 0 23.81 40.93c22 25.26 79.11 42.63 110.77 53.43 33.86 11.56 47.19 20.51 83.19 20.51-7.33-.89-21.7 6.7-28.78 8.88l-54.17 16.66c-19 5.85-31 5.46-49-4.34-24.14-13.09-47-28.27-69.88-43.43a155.023 155.023 0 0 1-23.95-19.39Z" fill="#0AD3C5"/>
    <path d="M184.64 2264.15c3.656 0 6.62-2.9 6.62-6.48 0-3.58-2.964-6.48-6.62-6.48-3.657 0-6.62 2.9-6.62 6.48 0 3.58 2.963 6.48 6.62 6.48Z" fill="#0ADAC9"/>
    <path d="M235.16 2250.09c12.2 0 22.09-9.68 22.09-21.63s-9.89-21.63-22.09-21.63-22.09 9.68-22.09 21.63 9.89 21.63 22.09 21.63Z" fill="#00B8C4"/>
    <path d="M395.29 2350.56c7.892 0 14.29-6.26 14.29-13.99s-6.398-13.99-14.29-13.99c-7.892 0-14.29 6.26-14.29 13.99s6.398 13.99 14.29 13.99Z" fill="#13BECF"/>
    <path d="M403.36 2292.62c5.263 0 9.53-4.18 9.53-9.33s-4.267-9.33-9.53-9.33c-5.263 0-9.53 4.18-9.53 9.33s4.267 9.33 9.53 9.33Z" fill="#0ADAC9"/>
    <path d="M466.89 2322.58c6.903 0 12.5-5.48 12.5-12.23s-5.597-12.23-12.5-12.23c-6.904 0-12.5 5.48-12.5 12.23s5.596 12.23 12.5 12.23Z" fill="#00B8C4"/>
    <path d="M178 2533.26s187.94-74.45 386.09 4.56c0 0 149.13 79 337.07 29 0 0-116.45 86-361.58-2 0 0-224.59-73.14-361.58-31.57" fill="#FFFFE6"/>
    <path d="M122.54 2201c4.7-7.87 25.51-48.2 30.61-21.2 2.4 12.68 34.26 15.56 50.77 3.29 16.51-12.27 31.46-31.93 18.69-49.29-49.82-67.7-178.39 21.34-197.25 74-19.29 53.85-5.26 111.21 13.53 163.24 20.56 56.9 51.71 129.18 110.34 157.57a94.024 94.024 0 0 0 31.45 9.15c16.88-2.81 425-65 425-65S15.94 2379.38 122.54 2201Z" fill="#00B8C4"/>
    <path d="M-14 2399.45c27.16-15.72 71.23-37 127.1-43.88 115.07-14.21 204 41.91 242.53 62.69 222.36 119.88 571.11 35.86 773-166.13 46-46 111.26-125.08 166-255.47v655.12H-7.52L-14 2399.45Z" fill="#69E1C0"/>
    <path d="M1003.59 2122c25.82-25.23 90.87-31.12 114.84-.85 7.93 10 12 22.44 14.74 34.81 25.37 112.94-42.83 195.56-136 251-61.17 36.43-126.67 68.11-197.17 80.83-70.5 12.72-223-8.12-283.4-45.88 4.79 3 36-2.95 42.7-3.11 23.07-.55 45.64.39 68.71.73 143.37 2.11 286.65-44.56 399.85-130.78 24.35-18.55 60.23-60.47 63.26-91.64 2.26-23.25-12.1-45-49.78-43.73-14.68.49-30.52 3.5-41.82-8.84-10.9-11.93-6.76-31.98 4.07-42.54Z" fill="#13CBCF"/>
    <path d="M-14 2463.71c62.78-30.58 146.8-67.18 251.51-78.36 154-16.44 206.66 37.71 390.65 70.52 126.27 22.52 442.39 78.89 593.66-106.57 44.28-54.28 63.52-115.89 72.81-158.29v460.77H-14v-188.07Z" fill="#13BECF"/>
    <path d="M1221.83 2349.3c-151.28 185.46-467.4 129.09-593.67 106.57-184-32.81-236.64-87-390.65-70.52-104.71 11.18-188.73 47.78-251.51 78.36V2491c62.78-30.58 146.8-67.19 251.51-78.37 154-16.44 206.66 37.72 390.65 70.53 126.27 22.52 442.39 78.89 593.67-106.57 44.27-54.28 63.51-115.9 72.8-158.3V2191c-9.29 42.41-28.53 104-72.8 158.3Z" fill="#0ADAC9"/>
    <path d="M1159.88 2239c-18.9-3.23-41.09 2.94-48.2 17.71-4.64 9.64-1.71 21.67 7.14 29.3 8.85 7.63 23.12 10.44 34.77 6.83 9 9.26 9 22.56 4.79 33.66-57.16 149.79-533.16 234.66-657.66 172.22 66.51 33.36 160.12 70.87 233.9 89.78 42.93 11 106-3 150-6 48-3.32 96.07-.44 144.09-4.4 117.96-9.8 280.87-313.5 131.17-339.1Z" fill="#00B8C4"/>
    <path d="M929.43 2209.43c5.688 0 10.3-3.91 10.3-8.73s-4.612-8.73-10.3-8.73c-5.689 0-10.3 3.91-10.3 8.73s4.611 8.73 10.3 8.73ZM907.46 2297.68c9.245 0 16.74-6.35 16.74-14.19s-7.495-14.19-16.74-14.19c-9.245 0-16.74 6.35-16.74 14.19s7.495 14.19 16.74 14.19Z" fill="#0ADAC9"/>
    <path d="M966.75 2255.12c10.493 0 19-7.21 19-16.11 0-8.9-8.507-16.11-19-16.11s-19 7.21-19 16.11c0 8.9 8.507 16.11 19 16.11Z" fill="#00B8C4"/>
    <path d="M1000.25 2297.67c-14.29-2.4-31.15 2.54-36.66 14.09-3.6 7.55-1.48 16.9 5.17 22.79 6.65 5.89 17.43 8 26.27 5.1 6.71 7.15 6.66 17.52 3.35 26.19-44.54 117.07-405.8 186.2-499.58 138.35 50.1 25.56 120.7 54.2 176.43 68.46 32.42 8.3 80.33-3 113.67-5.64 36.35-2.89 72.77-1 109.18-4.34 89.43-8.33 215.35-245.97 102.17-265Z" fill="#0AD3C5"/>
    <path d="M528.16 2345.91c-2.92-10.72-4.2-22.33-.27-32.73 9-23.72 44.15-30.5 65-15.56 15.72 11.27 23.39 30.41 37.19 43.89 12.44 12.17 30.79 19.33 48 15.72 17.21-3.61 31.74-19.56 30.59-36.74-.46-6.76-2.72-14.74 2.26-19.44 10.37 8.68 12.85 16.64 17.63 29.14 17.58-3.42 41.83 2 58.14 9.3l-57.74 11.58c.35 20-26 39-42.17 46.14-33 14.57-77.46 18.42-112.38 4.46-24.53-9.78-39.58-31.31-46.25-55.76Z" fill="#65DDDC"/>
    <path d="M570.36 2330.19c5.087 0 9.21-4.04 9.21-9.02 0-4.98-4.123-9.02-9.21-9.02-5.086 0-9.21 4.04-9.21 9.02 0 4.98 4.124 9.02 9.21 9.02Z" fill="#FFFFE6"/>
    <path d="M1294.63 2523.79c-122.47 25.18-249.38 33.35-374.93 28.75-115.16-4.22-233.711-11.65-343.341-45-119.11-36.23-248.499-104.37-377.089-58.26-68 24.38-135.49 61.62-193 101.1-6.8 4.67-13.55 9.39-20.25 14.18v216.11h1308.61v-256.88Z" fill="#0A9BBF"/>
    <path d="M160.66 2780.67h1134v-108.61c-40.2 17.73-88.13 24.64-134.13 29.75-160.18 17.79-323.88 23.56-483 .15-68.95-10.14-136.75-25.72-206.34-32.37-69.59-6.65-142.72-3.78-205.65 21.34-25.96 10.36-89.9 54.23-104.88 89.74Z" fill="#0A88BF"/>
    <path opacity=".53" d="M239.69 2575.65s168.16-79.5 299.92-10.82c0 0 251.23 104.48 361.57 76.08-42.34 10.9-84.06 16.86-128.13 16.41-50.66-.52-101.16-8.09-150-21-84.42-22.2-147.57-64.44-237-63-62.79 1-154.55 2.23-201.4 50.41l55.04-48.08Z" fill="#13BECF"/>
    <path d="M130.81 371c-6.41-44.19-35.51-84.17-74-112.24-11.71-8.52-34.6-23.76-58.49-35.15v89.51a191.12 191.12 0 0 1 47.15 28.05c30.73 24.57 54.94 64.36 37.1 97.67-3.4-12.1-23.41-14.73-34.07-6.74s-13.34 21.78-12.63 34.25c.77 13.33 8 29.31 22.84 30.21 7.28.44 14.09-3.11 20-7 39.83-26.46 58.51-74.33 52.1-118.56ZM1149.82 371c6.41-44.19 35.51-84.17 74-112.24 11.73-8.56 34.63-23.83 58.52-35.19v89.51a191.145 191.145 0 0 0-47.16 28.05c-30.72 24.57-54.93 64.36-37.09 97.67 3.4-12.1 23.41-14.73 34.06-6.74 10.65 7.99 13.34 21.78 12.63 34.25-.76 13.33-8 29.31-22.83 30.21-7.29.44-14.1-3.11-20-7-39.86-26.42-58.54-74.29-52.13-118.52Z" fill="#0AC5FF" style="mix-blend-mode:multiply" opacity=".5"/>
    <path d="M1282.32 180.05s-161 94.52-152 176.81c0 0-25-40.27-19-56.46h-942c6 16.19-19.06 56.46-19.06 56.46 9-82.29-151.94-176.81-151.94-176.81" stroke="#06A0DE" stroke-width="4" stroke-linecap="round" stroke-linejoin="round" style="mix-blend-mode:multiply" opacity=".5"/>
  </g>
  <defs>
    <clipPath id="a">
      <path fill="#fff" d="M0 0h1282v2781H0z"/>
    </clipPath>
  </defs>
</svg>

<svg width="1282" height="2781" viewBox="0 0 1282 2781" fill="none" xmlns="http://www.w3.org/2000/svg">
<g clip-path="url(#clip0)">
<path d="M1284.1 2.67001H0.0996094V2780.67H1284.1V2.67001Z" fill="#ECE9E9"/>
<path d="M-1.67969 0V2778H81.1003V579.77L106.53 564.77C174.34 522.18 214.6 373.21 214.6 373.21C217.01 370.36 1070.27 370.26 1072.77 373.21C1072.77 373.21 1113.03 522.21 1180.84 564.74L1206.27 579.74V2778H1282.27V0H-1.67969Z" fill="#86D5C2"/>
<g style="mix-blend-mode:multiply" opacity="0.5">
<path d="M1093.76 336.82H193.61C144.23 541.05 52.1904 557 52.1904 557V2778H81.1004V579.77L106.53 564.77C174.34 522.18 214.6 373.21 214.6 373.21C217.01 370.36 1070.27 370.21 1072.77 373.21C1072.77 373.21 1113.03 522.21 1180.84 564.74L1206.27 579.74V2778H1235.18V557C1235.18 557 1143.14 541.05 1093.76 336.82Z" fill="#06A0DE"/>
</g>
<path d="M290.79 2400.32C271.23 2380.82 259.43 2357.41 251.7 2328.32C242.77 2294.79 246.42 2258.32 282.23 2242.44C305.87 2231.94 354.54 2239.81 360.18 2270.06C362.05 2280.06 356.75 2291.14 347.73 2296.06C339.56 2300.57 326.53 2308.35 318.25 2300.55C312.74 2295.36 314.79 2285.69 309.85 2280.88C300.51 2271.79 292.25 2284.3 291.42 2292.52C290.29 2303.8 295.19 2316.52 298.8 2327.07C304.013 2342.13 312.1 2356.03 322.61 2368C344.61 2393.26 401.72 2410.63 433.38 2421.43C467.24 2432.99 480.57 2441.94 516.57 2441.94C509.24 2441.05 494.87 2448.64 487.79 2450.82L433.62 2467.48C414.62 2473.33 402.62 2472.94 384.62 2463.14C360.48 2450.05 337.62 2434.87 314.74 2419.71C306.132 2414.06 298.109 2407.56 290.79 2400.32V2400.32Z" fill="#0AD3C5"/>
<path d="M184.64 2264.15C188.296 2264.15 191.26 2261.25 191.26 2257.67C191.26 2254.09 188.296 2251.19 184.64 2251.19C180.983 2251.19 178.02 2254.09 178.02 2257.67C178.02 2261.25 180.983 2264.15 184.64 2264.15Z" fill="#0ADAC9"/>
<path d="M235.16 2250.09C247.36 2250.09 257.25 2240.41 257.25 2228.46C257.25 2216.51 247.36 2206.83 235.16 2206.83C222.96 2206.83 213.07 2216.51 213.07 2228.46C213.07 2240.41 222.96 2250.09 235.16 2250.09Z" fill="#00B8C4"/>
<path d="M395.29 2350.56C403.182 2350.56 409.58 2344.3 409.58 2336.57C409.58 2328.84 403.182 2322.58 395.29 2322.58C387.398 2322.58 381 2328.84 381 2336.57C381 2344.3 387.398 2350.56 395.29 2350.56Z" fill="#13BECF"/>
<path d="M403.36 2292.62C408.623 2292.62 412.89 2288.44 412.89 2283.29C412.89 2278.14 408.623 2273.96 403.36 2273.96C398.097 2273.96 393.83 2278.14 393.83 2283.29C393.83 2288.44 398.097 2292.62 403.36 2292.62Z" fill="#0ADAC9"/>
<path d="M466.89 2322.58C473.793 2322.58 479.39 2317.1 479.39 2310.35C479.39 2303.6 473.793 2298.12 466.89 2298.12C459.986 2298.12 454.39 2303.6 454.39 2310.35C454.39 2317.1 459.986 2322.58 466.89 2322.58Z" fill="#00B8C4"/>
<path d="M178 2533.26C178 2533.26 365.94 2458.81 564.09 2537.82C564.09 2537.82 713.22 2616.82 901.16 2566.82C901.16 2566.82 784.71 2652.82 539.58 2564.82C539.58 2564.82 314.99 2491.68 178 2533.25" fill="#FFFFE6"/>
<path d="M122.54 2201C127.24 2193.13 148.05 2152.8 153.15 2179.8C155.55 2192.48 187.41 2195.36 203.92 2183.09C220.43 2170.82 235.38 2151.16 222.61 2133.8C172.79 2066.1 44.2203 2155.14 25.3603 2207.8C6.07027 2261.65 20.1003 2319.01 38.8903 2371.04C59.4503 2427.94 90.6003 2500.22 149.23 2528.61C159.097 2533.48 169.742 2536.57 180.68 2537.76C197.56 2534.95 605.68 2472.76 605.68 2472.76C605.68 2472.76 15.9403 2379.38 122.54 2201Z" fill="#00B8C4"/>
<path d="M-14 2399.45C13.16 2383.73 57.23 2362.45 113.1 2355.57C228.17 2341.36 317.1 2397.48 355.63 2418.26C577.99 2538.14 926.74 2454.12 1128.63 2252.13C1174.63 2206.13 1239.89 2127.05 1294.63 1996.66V2651.78H-7.52L-14 2399.45Z" fill="#69E1C0"/>
<path d="M1003.59 2122C1029.41 2096.77 1094.46 2090.88 1118.43 2121.15C1126.36 2131.15 1130.43 2143.59 1133.17 2155.96C1158.54 2268.9 1090.34 2351.52 997.17 2406.96C936 2443.39 870.5 2475.07 800 2487.79C729.5 2500.51 577 2479.67 516.6 2441.91C521.39 2444.91 552.6 2438.96 559.3 2438.8C582.37 2438.25 604.94 2439.19 628.01 2439.53C771.38 2441.64 914.66 2394.97 1027.86 2308.75C1052.21 2290.2 1088.09 2248.28 1091.12 2217.11C1093.38 2193.86 1079.02 2172.11 1041.34 2173.38C1026.66 2173.87 1010.82 2176.88 999.52 2164.54C988.62 2152.61 992.76 2132.56 1003.59 2122Z" fill="#13CBCF"/>
<path d="M-14 2463.71C48.78 2433.13 132.8 2396.53 237.51 2385.35C391.51 2368.91 444.17 2423.06 628.16 2455.87C754.43 2478.39 1070.55 2534.76 1221.82 2349.3C1266.1 2295.02 1285.34 2233.41 1294.63 2191.01V2651.78H-14V2463.71Z" fill="#13BECF"/>
<path d="M1221.83 2349.3C1070.55 2534.76 754.43 2478.39 628.16 2455.87C444.16 2423.06 391.52 2368.87 237.51 2385.35C132.8 2396.53 48.78 2433.13 -14 2463.71V2491C48.78 2460.42 132.8 2423.81 237.51 2412.63C391.51 2396.19 444.17 2450.35 628.16 2483.16C754.43 2505.68 1070.55 2562.05 1221.83 2376.59C1266.1 2322.31 1285.34 2260.69 1294.63 2218.29V2191C1285.34 2233.41 1266.1 2295 1221.83 2349.3Z" fill="#0ADAC9"/>
<path d="M1159.88 2239C1140.98 2235.77 1118.79 2241.94 1111.68 2256.71C1107.04 2266.35 1109.97 2278.38 1118.82 2286.01C1127.67 2293.64 1141.94 2296.45 1153.59 2292.84C1162.59 2302.1 1162.59 2315.4 1158.38 2326.5C1101.22 2476.29 625.22 2561.16 500.72 2498.72C567.23 2532.08 660.84 2569.59 734.62 2588.5C777.55 2599.5 840.62 2585.5 884.62 2582.5C932.62 2579.18 980.69 2582.06 1028.71 2578.1C1146.67 2568.3 1309.58 2264.6 1159.88 2239Z" fill="#00B8C4"/>
<path d="M929.43 2209.43C935.118 2209.43 939.73 2205.52 939.73 2200.7C939.73 2195.88 935.118 2191.97 929.43 2191.97C923.741 2191.97 919.13 2195.88 919.13 2200.7C919.13 2205.52 923.741 2209.43 929.43 2209.43Z" fill="#0ADAC9"/>
<path d="M907.46 2297.68C916.705 2297.68 924.2 2291.33 924.2 2283.49C924.2 2275.65 916.705 2269.3 907.46 2269.3C898.215 2269.3 890.72 2275.65 890.72 2283.49C890.72 2291.33 898.215 2297.68 907.46 2297.68Z" fill="#0ADAC9"/>
<path d="M966.75 2255.12C977.243 2255.12 985.75 2247.91 985.75 2239.01C985.75 2230.11 977.243 2222.9 966.75 2222.9C956.257 2222.9 947.75 2230.11 947.75 2239.01C947.75 2247.91 956.257 2255.12 966.75 2255.12Z" fill="#00B8C4"/>
<path d="M1000.25 2297.67C985.96 2295.27 969.1 2300.21 963.59 2311.76C959.99 2319.31 962.11 2328.66 968.76 2334.55C975.41 2340.44 986.19 2342.55 995.03 2339.65C1001.74 2346.8 1001.69 2357.17 998.38 2365.84C953.84 2482.91 592.58 2552.04 498.8 2504.19C548.9 2529.75 619.5 2558.39 675.23 2572.65C707.65 2580.95 755.56 2569.65 788.9 2567.01C825.25 2564.12 861.67 2566.01 898.08 2562.67C987.51 2554.34 1113.43 2316.7 1000.25 2297.67Z" fill="#0AD3C5"/>
<path d="M528.16 2345.91C525.24 2335.19 523.96 2323.58 527.89 2313.18C536.89 2289.46 572.04 2282.68 592.89 2297.62C608.61 2308.89 616.28 2328.03 630.08 2341.51C642.52 2353.68 660.87 2360.84 678.08 2357.23C695.29 2353.62 709.82 2337.67 708.67 2320.49C708.21 2313.73 705.95 2305.75 710.93 2301.05C721.3 2309.73 723.78 2317.69 728.56 2330.19C746.14 2326.77 770.39 2332.19 786.7 2339.49L728.96 2351.07C729.31 2371.07 702.96 2390.07 686.79 2397.21C653.79 2411.78 609.33 2415.63 574.41 2401.67C549.88 2391.89 534.83 2370.36 528.16 2345.91Z" fill="#65DDDC"/>
<path d="M570.36 2330.19C575.447 2330.19 579.57 2326.15 579.57 2321.17C579.57 2316.19 575.447 2312.15 570.36 2312.15C565.274 2312.15 561.15 2316.19 561.15 2321.17C561.15 2326.15 565.274 2330.19 570.36 2330.19Z" fill="#FFFFE6"/>
<path d="M1294.63 2523.79C1172.16 2548.97 1045.25 2557.14 919.7 2552.54C804.54 2548.32 685.989 2540.89 576.359 2507.54C457.249 2471.31 327.86 2403.17 199.27 2449.28C131.27 2473.66 63.7795 2510.9 6.26953 2550.38C-0.530469 2555.05 -7.28047 2559.77 -13.9805 2564.56V2780.67H1294.63V2523.79Z" fill="#0A9BBF"/>
<path d="M160.66 2780.67H1294.66V2672.06C1254.46 2689.79 1206.53 2696.7 1160.53 2701.81C1000.35 2719.6 836.65 2725.37 677.53 2701.96C608.58 2691.82 540.78 2676.24 471.19 2669.59C401.6 2662.94 328.47 2665.81 265.54 2690.93C239.58 2701.29 175.64 2745.16 160.66 2780.67Z" fill="#0A88BF"/>
<path opacity="0.53" d="M239.69 2575.65C239.69 2575.65 407.85 2496.15 539.61 2564.83C539.61 2564.83 790.84 2669.31 901.18 2640.91C858.84 2651.81 817.12 2657.77 773.05 2657.32C722.39 2656.8 671.89 2649.23 623.05 2636.32C538.63 2614.12 475.48 2571.88 386.05 2573.32C323.26 2574.32 231.5 2575.55 184.65 2623.73L239.69 2575.65Z" fill="#13BECF"/>
<g style="mix-blend-mode:multiply" opacity="0.5">
<path d="M130.81 371C124.4 326.81 95.3003 286.83 56.8103 258.76C45.1003 250.24 22.2103 235 -1.67969 223.61V313.12C15.3042 320.154 31.1845 329.601 45.4703 341.17C76.2003 365.74 100.41 405.53 82.5703 438.84C79.1703 426.74 59.1603 424.11 48.5003 432.1C37.8403 440.09 35.1603 453.88 35.8703 466.35C36.6403 479.68 43.8703 495.66 58.7103 496.56C65.9903 497 72.8003 493.45 78.7103 489.56C118.54 463.1 137.22 415.23 130.81 371Z" fill="#0AC5FF"/>
</g>
<g style="mix-blend-mode:multiply" opacity="0.5">
<path d="M1149.82 371C1156.23 326.81 1185.33 286.83 1223.82 258.76C1235.55 250.2 1258.45 234.93 1282.34 223.57V313.08C1265.35 320.114 1249.47 329.561 1235.18 341.13C1204.46 365.7 1180.25 405.49 1198.09 438.8C1201.49 426.7 1221.5 424.07 1232.15 432.06C1242.8 440.05 1245.49 453.84 1244.78 466.31C1244.02 479.64 1236.78 495.62 1221.95 496.52C1214.66 496.96 1207.85 493.41 1201.95 489.52C1162.09 463.1 1143.41 415.23 1149.82 371Z" fill="#0AC5FF"/>
</g>
<g style="mix-blend-mode:multiply" opacity="0.5">
<path d="M1282.32 180.05C1282.32 180.05 1121.32 274.57 1130.32 356.86C1130.32 356.86 1105.32 316.59 1111.32 300.4H169.32C175.32 316.59 150.26 356.86 150.26 356.86C159.26 274.57 -1.67969 180.05 -1.67969 180.05" stroke="#06A0DE" stroke-width="4" stroke-linecap="round" stroke-linejoin="round"/>
</g>
</g>
<defs>
<clipPath id="clip0">
<rect width="1282" height="2781" fill="white"/>
</clipPath>
</defs>
</svg>
